X: 43486
T: Yellow Tinker, The
R: reel
M: 4/4
K: Gmixolydian
DG~G2 DF~F2|DG~G2 dGcG|DGGF DCDF|cAFA c2AF:|
G2BG dGeG|G2BG ABcA|dG~G2 defd|cAFA c2Bc|dG~G2 eG~G2|dG~G2 ABcA|dcde fefd|cAFA c2AF|

